build/svg/cmd/lc_formatarea.svg

<?xml version="1.0" encoding="UTF-8" standalone="no"?>
<svg
   xmlns:dc="http://purl.org/dc/elements/1.1/"
   xmlns:cc="http://creativecommons.org/ns#"
   xmlns:rdf="http://www.w3.org/1999/02/22-rdf-syntax-ns#"
   xmlns:svg="http://www.w3.org/2000/svg"
   xmlns="http://www.w3.org/2000/svg"
   xmlns:sodipodi="http://sodipodi.sourceforge.net/DTD/sodipodi-0.dtd"
   xmlns:inkscape="http://www.inkscape.org/namespaces/inkscape"
   viewBox="0 0 24 24"
   version="1.1"
   id="svg4"
   sodipodi:docname="lc_formatarea.svg"
   inkscape:version="0.92.4 (5da689c313, 2019-01-14)"
   inkscape:export-filename="/home/jupiter007/Libreoffice yaru theme fullcolor/build/cmd/lc_formatarea.png"
   inkscape:export-xdpi="96"
   inkscape:export-ydpi="96">
  <metadata
     id="metadata10">
    <rdf:RDF>
      <cc:Work
         rdf:about="">
        <dc:format>image/svg+xml</dc:format>
        <dc:type
           rdf:resource="http://purl.org/dc/dcmitype/StillImage" />
      </cc:Work>
    </rdf:RDF>
  </metadata>
  <defs
     id="defs8" />
  <sodipodi:namedview
     pagecolor="#ffffff"
     bordercolor="#666666"
     borderopacity="1"
     objecttolerance="10"
     gridtolerance="10"
     guidetolerance="10"
     inkscape:pageopacity="0"
     inkscape:pageshadow="2"
     inkscape:window-width="1920"
     inkscape:window-height="1011"
     id="namedview6"
     showgrid="true"
     inkscape:zoom="27.812867"
     inkscape:cx="12.490541"
     inkscape:cy="11.569935"
     inkscape:window-x="0"
     inkscape:window-y="32"
     inkscape:window-maximized="1"
     inkscape:current-layer="svg4">
    <inkscape:grid
       type="xygrid"
       id="grid853" />
  </sodipodi:namedview>
  <rect
     style="opacity:1;vector-effect:none;fill:#fdc92b;fill-opacity:1;stroke:none;stroke-width:3;stroke-linecap:round;stroke-linejoin:round;stroke-miterlimit:4;stroke-dasharray:none;stroke-dashoffset:0;stroke-opacity:1"
     id="rect3830-2-2"
     width="6"
     height="6"
     x="12"
     y="18" />
  <rect
     style="opacity:1;vector-effect:none;fill:#f34f17;fill-opacity:1;stroke:none;stroke-width:3;stroke-linecap:round;stroke-linejoin:round;stroke-miterlimit:4;stroke-dasharray:none;stroke-dashoffset:0;stroke-opacity:1"
     id="rect3830-3-2"
     width="6"
     height="6"
     x="18"
     y="18" />
  <rect
     style="opacity:1;vector-effect:none;fill:#ffda64;fill-opacity:1;stroke:none;stroke-width:3;stroke-linecap:round;stroke-linejoin:round;stroke-miterlimit:4;stroke-dasharray:none;stroke-dashoffset:0;stroke-opacity:1"
     id="rect3830-2-3"
     width="6"
     height="6"
     x="12"
     y="12" />
  <rect
     style="opacity:1;vector-effect:none;fill:#fb7c38;fill-opacity:1;stroke:none;stroke-width:3;stroke-linecap:round;stroke-linejoin:round;stroke-miterlimit:4;stroke-dasharray:none;stroke-dashoffset:0;stroke-opacity:1"
     id="rect3830-3-6"
     width="6"
     height="6"
     x="18"
     y="12" />
  <rect
     style="opacity:1;vector-effect:none;fill:#fee581;fill-opacity:1;stroke:none;stroke-width:3;stroke-linecap:round;stroke-linejoin:round;stroke-miterlimit:4;stroke-dasharray:none;stroke-dashoffset:0;stroke-opacity:1"
     id="rect3830-2-1"
     width="6"
     height="6"
     x="12"
     y="6" />
  <rect
     style="opacity:1;vector-effect:none;fill:#fda463;fill-opacity:1;stroke:none;stroke-width:3;stroke-linecap:round;stroke-linejoin:round;stroke-miterlimit:4;stroke-dasharray:none;stroke-dashoffset:0;stroke-opacity:1"
     id="rect3830-3-9"
     width="6"
     height="6"
     x="18"
     y="6" />
  <rect
     style="opacity:1;vector-effect:none;fill:#2daaaa;fill-opacity:1;stroke:none;stroke-width:3;stroke-linecap:round;stroke-linejoin:round;stroke-miterlimit:4;stroke-dasharray:none;stroke-dashoffset:0;stroke-opacity:1"
     id="rect3830-5"
     width="6"
     height="6"
     x="-2.3841858e-07"
     y="18" />
  <rect
     style="opacity:1;vector-effect:none;fill:#46a926;fill-opacity:1;stroke:none;stroke-width:3;stroke-linecap:round;stroke-linejoin:round;stroke-miterlimit:4;stroke-dasharray:none;stroke-dashoffset:0;stroke-opacity:1"
     id="rect3830-0-9"
     width="6"
     height="6"
     x="6"
     y="18" />
  <rect
     style="opacity:1;vector-effect:none;fill:#31c6b7;fill-opacity:1;stroke:none;stroke-width:3;stroke-linecap:round;stroke-linejoin:round;stroke-miterlimit:4;stroke-dasharray:none;stroke-dashoffset:0;stroke-opacity:1"
     id="rect3830-9"
     width="6"
     height="6"
     x="0"
     y="12" />
  <rect
     style="opacity:1;vector-effect:none;fill:#76c22b;fill-opacity:1;stroke:none;stroke-width:3;stroke-linecap:round;stroke-linejoin:round;stroke-miterlimit:4;stroke-dasharray:none;stroke-dashoffset:0;stroke-opacity:1"
     id="rect3830-0-7"
     width="6"
     height="6"
     x="6"
     y="12" />
  <rect
     style="opacity:1;vector-effect:none;fill:#5bdbc1;fill-opacity:1;stroke:none;stroke-width:3;stroke-linecap:round;stroke-linejoin:round;stroke-miterlimit:4;stroke-dasharray:none;stroke-dashoffset:0;stroke-opacity:1"
     id="rect3830-29"
     width="6"
     height="6"
     x="0"
     y="6" />
  <rect
     style="opacity:1;vector-effect:none;fill:#a6d74f;fill-opacity:1;stroke:none;stroke-width:3;stroke-linecap:round;stroke-linejoin:round;stroke-miterlimit:4;stroke-dasharray:none;stroke-dashoffset:0;stroke-opacity:1"
     id="rect3830-0-3"
     width="6"
     height="6"
     x="6"
     y="6" />
  <rect
     style="opacity:1;vector-effect:none;fill:#81e9c0;fill-opacity:1;stroke:none;stroke-width:3;stroke-linecap:round;stroke-linejoin:round;stroke-miterlimit:4;stroke-dasharray:none;stroke-dashoffset:0;stroke-opacity:1"
     id="rect3830-78"
     width="6"
     height="6"
     x="0"
     y="0" />
  <rect
     style="opacity:1;vector-effect:none;fill:#cbe667;fill-opacity:1;stroke:none;stroke-width:3;stroke-linecap:round;stroke-linejoin:round;stroke-miterlimit:4;stroke-dasharray:none;stroke-dashoffset:0;stroke-opacity:1"
     id="rect3830-0-4"
     width="6"
     height="6"
     x="6"
     y="0" />
  <rect
     style="opacity:1;vector-effect:none;fill:#fff4c9;fill-opacity:1;stroke:none;stroke-width:3;stroke-linecap:round;stroke-linejoin:round;stroke-miterlimit:4;stroke-dasharray:none;stroke-dashoffset:0;stroke-opacity:1"
     id="rect3830-2-5"
     width="6"
     height="6"
     x="12"
     y="0" />
  <rect
     style="opacity:1;vector-effect:none;fill:#fec589;fill-opacity:1;stroke:none;stroke-width:3;stroke-linecap:round;stroke-linejoin:round;stroke-miterlimit:4;stroke-dasharray:none;stroke-dashoffset:0;stroke-opacity:1"
     id="rect3830-3-0"
     width="6"
     height="6"
     x="18"
     y="0" />
  <path
     d="m11.5 4c-1.385 0-2.5 1.115-2.5 2.5v2.5l-5 5 6 6 7-7-3-3v-3.5c0-1.385-1.115-2.5-2.5-2.5zm0 1c.831 0 1.5.669 1.5 1.5v2.5l-2-2-1 1v-1.5c0-.831.669-1.5 1.5-1.5zm-.5 3.4140625 4.535156 4.5371095c-3.53535 4.04969-5.5359335-1.951052-10.1210935 1.048828zm7.5 3.5859375s-1.5 2.67157-1.5 3.5.67157 1.5 1.5 1.5 1.5-.67157 1.5-1.5-1.5-3.5-1.5-3.5z"
     fill="#232629"
     id="path2"
     style="fill:#000000" />
</svg>

<svg xmlns="http://www.w3.org/2000/svg" viewBox="0 0 24 24"><path fill="#fdc92b" d="M12 18h6v6h-6z"/><path fill="#f34f17" d="M18 18h6v6h-6z"/><path fill="#ffda64" d="M12 12h6v6h-6z"/><path fill="#fb7c38" d="M18 12h6v6h-6z"/><path fill="#fee581" d="M12 6h6v6h-6z"/><path fill="#fda463" d="M18 6h6v6h-6z"/><path fill="#2daaaa" d="M0 18h6v6H0z"/><path fill="#46a926" d="M6 18h6v6H6z"/><path fill="#31c6b7" d="M0 12h6v6H0z"/><path fill="#76c22b" d="M6 12h6v6H6z"/><path fill="#5bdbc1" d="M0 6h6v6H0z"/><path fill="#a6d74f" d="M6 6h6v6H6z"/><path fill="#81e9c0" d="M0 0h6v6H0z"/><path fill="#cbe667" d="M6 0h6v6H6z"/><path fill="#fff4c9" d="M12 0h6v6h-6z"/><path fill="#fec589" d="M18 0h6v6h-6z"/><path d="M11.5 4A2.495 2.495 0 009 6.5V9l-5 5 6 6 7-7-3-3V6.5C14 5.115 12.885 4 11.5 4zm0 1c.831 0 1.5.669 1.5 1.5V9l-2-2-1 1V6.5c0-.831.669-1.5 1.5-1.5zM11 8.414l4.535 4.537C12 17.001 10 11.001 5.415 14zM18.5 12S17 14.672 17 15.5a1.5 1.5 0 003 0c0-.828-1.5-3.5-1.5-3.5z"/></svg>
